X: 021766
T: Ballinalarkey Maids
T: Gearrchail\'i Bhaile na Leargadh
S: B.Breathnach:"Ceol Rince na hEireann" IV/152
Z: B.Black
L: 1/8
M: 4/4
R: reel
K: G
BGGB cBAG|GFDE FEFD|DGGA BABc|gdcA BGAF|
G2 BG cBAF|DGGB AGFD|dfe^c d=cAF|1 DGGF G2 z2 :|2\
DGGF G2 ||
fg|addc gdcA|dgfa g2 ga|bgaf gfdc|ABcA G2 fg|
addc gdcA|dggf gfga|bgaf gfdc|1 ABcA G2 :|2 ABcA G2 z2 ||
